X: 030812
T: Cloone
T: Humors of Toomagh
S: 100 Enduring Irish Session Tunes ("Mally")/"Crossroads Dance" 
Z: B.Black
N: "Cloone" in key of C, "Toomagh" key of D
L: 1/8
M: 4/4
R: reel
K: C
e|dcAE G3 A|GEcE G3 e|dcAE G3 A|GEcE EDDe|
dcAE G3 A|GEcE G2 AB|(3cBc ec g2 ge|\
dcAG ED D :|
B|c2 ec gcec|g^fga gede|(3cBc ec gcec|\
gedc AG (3EGB|
c2 ec gcec|g^fga gede|gedc d2 ed|cAGE ED D :|
